X:1
T:Mit Fried und Freud
T:Martin Agricola
T:Source : DDT 34---Leipzig---Breitkopf & Härtel---J.Wolf---1908. First print : Newe Deudsche Geistliche Gesenge---Wittemberg---G.Rhau---1544. Editor : André Vierendeels (11/08/17).
T:Mit Fried und Freud
T:©
T:©
T:©
T:©
C:Martin Agricola
Z:©
%%score [ 1 [ 2 3 ] 4 ]
L:1/8
Q:1/4=120
M:2/2
K:C
V:1 treble nm="Soprano" snm="S"
V:2 treble-8 nm="Tenor 1" snm="T 1"
V:3 treble-8 nm="Tenor 2" snm="T 2"
V:4 bass nm="Bass" snm="B"
V:1
 z8 | z8 | z8 | z8 | z8 | D8 | A4 A4 | G4- GABc | d8 | c8 | B6 A2 | A4 z4 | c8 | A4 c4 | B2 A2 B4 | %15
w: |||||Mit|Fried und|Freud _ _ _ _|ich|fahr|da- *|hin,|in|Got- tes|Wil- * *|
 A8- | A8 | z8 | z4 z2 A2 | c6 B2 | c3 B A2 G2- | G2 F2 E4 | D8 | z8 | z8 | z4 A4- | A2 G2 F2 E2 | %27
w: le.|_||Ge-|trost ist|mir _ _ mein|_ Herz und|Sinn,|||sanft|_ und _ _|
 D8 | C8- | C8 | z8 | A6 G2 | F4 c4- | c2 B2 A4- | A2 GF G4 | A8 | z4 z2 G2- | G2 F2 E4 | D4 C4 | %39
w: stil-|le.|_||Wie _|mir Gott|_ ver- heis-|* * * sen|hat,|der|_ _ Tod|ist mein|
 F8 | E3 D E4 | D3 E FG F2- | F2 E2 D4 |"^#" C2 D4 C2 | D8- | D8- | D8- | D8- | D8- | D8 |] %50
w: Schlaf|wor- * *||||den.|_|||||
V:2
 D8 | A4 A4 | G4- GABc | d8 | c8 | B8 | z2 A3 Bcd | e6 dc | B2 c2 d4 | e8 | z4 z2 A2- | AGEF G4 | %12
w: Mit|Fried und|Freud _ _ _ _|_|ich|fahr,|ich _ _ _|fahr _ _|_ _ da-|hin,|in|_ _ _ _ Got-|
 E4 z2 e2 | f3 d e4 | d2 f2 e2 d2- | d2 cB cBAG | F3 G A4 | z4 z2 d2 | e4 f4 | e8 | e2 AB cd e2- | %21
w: tes, in|Got _ tes|Wil- * * *||* * le.|Ge-|trost ist|mir|mein Herz, _ _ _ _|
 e2 d4 c2 | B2 A3 G F2- | FGAB c2 d2 | e2 g2 f2 e2- | e2 d3 c c2 | d6 c2 | B2 A3 G G2 | A8 | %29
w: _ _ _||||* und _ Sinn,|sanft _|_ und _ stil-|le.|
 z4 A4 | A3 G FGAB | c6 B2 | A2 c3 d e2 | c2 e3 d d2 | e8 | c4 z2 c2 | d2 e2 f2 e2- | %37
w: Wie|mir _ _ _ _ _|_ _|* Gott _ _|_ ver- * heis-|sen|hat, der|Tod _ _ ist|
 e2 d2 e2 g2- | gf f2 e4 | d2 c4 B2 | c8 | A8- | A8- | A8 | z8 | z2 D3 EFG | A4 D4 | z2 d3 cBA | %48
w: _ _ mein Schlaf-|* * wor- *|||den,|_|||wor- * * *|* den,|wor- * * *|
 B8 | A8 |] %50
w: |den.|
V:3
 z8 | z8 | z8 | z8 | z8 | z8 | z8 | z8 | D8 | A4 A4 | G4 d4 | c4 B4 | A8- | A8 | z8 | z4 z2 c2 | %16
w: ||||||||Mit|Fried und|Freud ich|fahr da-|hin,|_||in|
 A4 c4 | B2 A2 B4 | A8- | A4 z4 | z8 | z8 | z4 z2 A2 | c6 B2 | c3 B A2 G2- | G2 F2 E4 | D8 | z8 | %28
w: Got- tes|Wil- * *|le.|_|||Ge-|trost ist|mir _ _ mein|_ Herz und|Sinn,||
 z8 | A6 G2 | F2 E2 D4 | C8 | z4 A4- | A2 G2 F4 | c6 B2 | A6 c2 | B2 A4 G2 | A4 z4 | z8 | z8 | %40
w: |sanft und|stil- * *|le.|Wie|_ _ mir|Gott ver-|heis- *|* * sen|hat,|||
 z4 z2 G2 | F4 D4 | C4 F4 | E2 D2 E4 | D8- | D8- | D8- | D8- | D8- | D8 |] %50
w: der|Tod ist|mein Schlaf|wor- * *|den.|_|||||
V:4
 z8 | A,,8 | E,4 E,4 | D,4- D,E,F,G, | A,8 | G,8 | D,3 E, F,4 | C,6 B,,A,, | G,,2 A,,2 B,,4 | %9
w: |Mit|Fried und|Freud _ _ _ _|_|ich|fahr, * *||* da- hin,|
 z2 A,,3 B,,C,D, | E,4 D,4 | A,,4 E,4 | A,,6 C,2 | D,4 A,,4 | z8 | z8 | z4 z2 F,2 | %17
w: mit _ _ _|Fried und|Freud ich|fahr _|da- hin,|||in|
 D,2 F,2 E,2 D,2- | D,2 C,2 D,4 | C,3 B,, A,,2 G,,2 | A,,2 A,3 G, E,2- | E,2 F,2 G,2 A,2 | %22
w: Got- tes Wil- *|||||
 D,4 F,4 | z2 F,2 F,E, D,2 | C,4 D,2 E,2 | C,2 D,2 A,,4 | z4 D,4- | D,2 C,2 B,,4 | A,,6 A,2- | %29
w: * le,|Ge- trost _ _|ist mir mein|Herz und Sinn,|sanft|_ _ _|und stil-|
 A,2 G,2 F,2 E,2 | D,2 C,2 D,2 C,B,, | A,,4 z2 E,2 | F,3 E, C,3 D, | E,4 F,4 | E,8 | F,6 E,2 | %36
w: ||le. Wie|mir _ _ _|_ _|Gott|ver- *|
 D,2 C,2 D,2 E,2 | C,2 D,4 C,2 | D,4 A,3 G, | F,2 E,2 D,4 | C,8 | z4 z2 D,2 | A,,4 D,4 | A,,8 | %44
w: heis- * * *|||* * sen|hat,|der|Tod ist|mein|
 B,,2 G,,3 A,,B,,C, | D,2 G,,2 z2 D,2- | D,E,F,G, A,2 D,2- | D,C,B,,A,, G,,4- | G,,8 | D,8 |] %50
w: Schlaf _ _ _ _|_ _ wor-||||den.|

